X: 1
T: My Mither's Aye Glow'rin Owre Me
O: Arr: Peter White
R: jig
B: Hugh Foss "DANCES to SONG TUNES" 1966 (music: Peter White)
Z: 2010 John Chambers <jc:trillian.mit.edu>
M: 6/8
L: 1/8
K: Em
B, \
| "Em"E>FE "Bm"D2B, | "Em"G3 "D"FGA | "G"B>cB "D"A2G | "G"d3 "C"B2e |
| "G"dBG GdG | "D"AFD DBA | "Em"G>FE "Bm"FDB, | "Em"G3 "Bm"F2B |
| "Em"e>fe "Bm"d2B | "Em"efg "Bm"f2e | "G"dcB BAG | "G"d3 "C"B2e |
| "G"dBG GdB | "D"AFD DBA | "Em"G>FE "Bm"FDB, |1"Em"G3 "Gm"F2 :|2 "Em"E3 E2 |]
